!!!SOCIAL_FUNCTION:	songs of personal narratives concerning war
!!!PDT:	1918

Specific Region: Dakotas, Minnesota, Montana, Nebraska
!!!REG: Dakotas and Montana
!!!LING_GROUP: Siouan
!!!LANG: Tone
!!!OTL@ENG: Two War Parties
!!!ONM: No. 175
**kern
*Imale
*clefF4
*k[f#]
*M2/4
*MM54
8.d
16B
8.B
16d
=1||
*M3/4
12B
12A
12G
4G
8G
8G
=2||
*M2/4
16.B
32A
8B
8.B
16d
=3
*M3/4
12B
12A
12G
12G
12E
[12D
4D]
=4||
*M2/4
8E
8E
8.G
16E
=5
4D
16E
8.D
=6||
*M3/4
8BB
8BB
4.BB
8BB
=7
4BB
4.BB
8B
=||
*M2/4
8d
24d
8B
[12B
12B]
12d
=8
12B
12A
12G
12G
12G
12E
=9||
*M3/4
8.G
16G
8B
8B
16B
16B
16.B
32d
=10
12B
12A
12G
16G
8.E
4D
=11||
*M2/4
8E
8E
8.G
16E
=12
4D
16E
8.D
=13
8BB
8BB
4BB
=14
4BB
4r
==
*-
!!!CNT: Native American -- Sioux
!!!MRD: 1911/07//-1914///
!!!OCL: Frances Densmore
!!!YOR1: Teton Sioux Music, Bulletin 61,
!!!YOR2: Bureau of American Ethnology, Smithsonian Institution
!!!PPR: Government Printing Office
!!!PPP: Washington, D.C.
!!!PDT: 1918///
!!!ENC: Craig Stuart Sapp
!!!END: 2002/03/25/
!!!EEV: 2002/03/31/
!!!AGN: War Song/Song of Personal Narrative Concerning War
!!!MPN@@SIO: Shung'ka-lu'zahang
!!!MPN@ENG: Swift Dog
!!!TXO: Teton Sioux
!!!MLC: Standing Rock Reservation, South Dakota, United States of America
!!!ARL: 45.9/-100.7#
!!!catalog: Catalogue No. 588
!!!PPG: 409
!!!EFL: 180/245
!!!VTS: 168252965
